X:1
T:arr. Charles Wood (1866-1926)
T:Bohemian Brethren, 1566
T:Mit Freuden zart
%%score { ( 1 2 ) | ( 3 4 ) }
L:1/8
Q:1/4=120
M:none
K:F
V:1 treble nm="Midi_1"
V:2 treble 
V:3 bass 
V:4 bass 
V:1
 F4 A2 B2 c4 f4 e4 d4 c4 | (d3 c) B2 A2 (G4 A2) B2 G4 F8 | F4 A2 B2 c4 f4 e4 d4 c4 | %3
w: Mit Freu- den zart zu die- ser Fahrt|lasst * uns zu- gleich fröh- lich sin- gen,|beid, Groß und Klein, von Her- zen rein|
w: Er ist der Erst, der stark und fest|all * uns- re Feind hat be- zwun- gen|und durch den Tod als wahr- er Gott|
w: Singt Lob und Dank mit frei- em Klang|un- serm Herrn zu al * len Zei- ten|und tut sein Ehr je mehr und mehr|
 (d3 c) B2 A2 G4 A2 B2 G4 F8 | f4 e2 d2 c2 f2 e4 d4 c4 z2 c2 F2 G2 A2 F2 A2 B2 c4 | %5
w: mit * hel- lem Ton frei er- klin- gen.|Das e- wig Heil wird uns zu- teil, denn Je- sus Christ er- stand- en ist,|
w: zum * neu- en Le- ben ge- drun- gen,|auch sei- ner Schar ver- hei- ßen klar durch sein rein Wort, zur Him- mels- pfort|
w: mit * Wort und Tat weit aus- brei- ten:|So wird es uns aus Lieb und Gunst nach un- serm Tod, frei al- ler Not|
 c4 d2 B2 G4 A2 B2 G4 F16 | %6
w: welch's er lässt reich- lich ver- kün- den.|
w: des- glei- chen Sieg zu er- lan- gen.|
w: zur ew- gen Freu- de ge- lei- ten.|
V:2
 F4 F2 F2 F4 F4 G4 G4 E4 | (F3 E) D2 C2 (C4 C2) D2 C4 C8 | F4 F2 F2 F4 F4 G4 G4 E4 | %3
 (F3 E) D2 C2 C4 C2 D2 C4 C8 | A4 A2 F2 F2 A2 G4 G4 E4 x2 E2 D2 D2 F2 D2 F2 G2 G4 | %5
 F4 F2 F2 _E4 E2 F4 =E2 x16 | %6
V:3
 A,4 D2 D2 C4 A,2 D4 (C4 =B,2) C4 | (F,3 F,) F,2 F,2 (E,4 F,2) F,4 E,2 F,8 | %2
 A,4 D2 D2 C4 A,2 D4 (C4 =B,2) C4 | F,4 F,2 F,2 E,4 F,2 F,4 E,2 F,8 | %4
 C4 C2 B,2 A,2 D4 C4 =B,2 C4 z2 A,2 A,2 _B,2 C2 D2 C2 D2 E4 | %5
"^This edition  Andrew Sims 2018" A,4 A,2 B,2 B,4 C2 D2 C4 A,16 | %6
V:4
 F,4 D,2 D,2 A,,4 D,4 E,4 G,4 C,4 | (B,,3 B,,) B,,2 F,2 (C,4 F,2) B,,2 C,4 x8 | %2
 F,4 D,2 D,2 A,,4 D,4 E,4 G,4 C,4 | B,,4 B,,2 F,2 C,4 F,2 B,,2 C,4 x8 | %4
 F,4 A,2 B,2 F,2 D,2 E,4 G,4 C,4 z2 A,2 D,2 G,2 F,2 B,2 A,2 G,2 C,4 | %5
 F,4 D,2 D,2 (_E,3 D,) C,2 B,,2 C,4 F,16 | %6

